icons/insecticide_resistance_fill.svg

<svg width="48" height="48" viewBox="0 0 48 48" fill="none" xmlns="http://www.w3.org/2000/svg">
<path fill-rule="evenodd" clip-rule="evenodd" d="M24 4C24.5523 4 25 4.44772 25 5V11.9509C25.0953 12.1025 25.1857 12.2752 25.2702 12.4665L27.2288 10.2559L28.0558 7.88565C28.2378 7.3642 28.808 7.08897 29.3295 7.27091C29.8509 7.45285 30.1261 8.02307 29.9442 8.54452L29.0522 11.1009C29.0094 11.2238 28.9429 11.3372 28.8566 11.4346L26.3777 14.2324L36.7632 15.428L36.9584 16.0461C37.1987 16.8066 37.1019 17.8817 36.213 18.7292C35.3634 19.5394 33.9368 20.0004 31.8144 20.0004C29.5861 20.0004 28.0519 19.3072 27.0755 18.3055C26.5361 17.7522 26.1943 17.1319 25.9991 16.5428C25.9997 16.6 26 16.6574 26 16.7151C26 17.4602 25.9461 18.1707 25.8485 18.8188L28.3582 19.7814C28.4689 19.8239 28.5713 19.8858 28.6604 19.9641L30.2112 21.3278L32.181 21.8226C32.7166 21.9571 33.0418 22.5005 32.9072 23.0361C32.7727 23.5717 32.2294 23.8969 31.6937 23.7623L29.489 23.2085C29.3347 23.1697 29.1918 23.0947 29.0723 22.9896L27.4744 21.5845L26.2204 21.1035L27.7754 22.4059C28.0582 22.6427 28.1877 23.016 28.1122 23.377L27.6816 25.4379L28.8232 26.5794C29.2137 26.97 29.2137 27.6031 28.8232 27.9936C28.4327 28.3842 27.7995 28.3842 27.409 27.9936L25.8851 26.4697C25.6465 26.2311 25.5443 25.8884 25.6133 25.5581L26.032 23.5545L24.7509 22.4816C24.6148 22.3676 24.5167 22.2251 24.458 22.0702C24.3109 22.165 24.1576 22.2151 24 22.2151C23.8425 22.2151 23.6892 22.165 23.5422 22.0703C23.4977 22.1873 23.4305 22.2978 23.3401 22.3952L22.3388 23.474L22.7743 25.5581C22.8433 25.8884 22.7411 26.2312 22.5025 26.4698L20.9786 27.9937C20.5881 28.3842 19.9549 28.3842 19.5644 27.9937C19.1738 27.6032 19.1738 26.97 19.5644 26.5795L20.7059 25.4379L20.2753 23.3771C20.209 23.0597 20.3007 22.7299 20.5213 22.4922L21.7478 21.1708L20.8282 21.5645L19.3408 22.9664C19.2165 23.0835 19.0642 23.1669 18.8985 23.2085L16.6938 23.7624C16.1582 23.8969 15.6149 23.5718 15.4803 23.0361C15.3458 22.5005 15.6709 21.9572 16.2066 21.8226L18.1586 21.3323L19.5856 19.9874C19.671 19.9069 19.77 19.842 19.8779 19.7958L22.152 18.8222C22.0541 18.1732 22 17.4615 22 16.7151C22 16.6575 22.0003 16.6001 22.001 16.5429C21.8058 17.132 21.4639 17.7522 20.9246 18.3055C19.9482 19.3072 18.414 20.0004 16.1857 20.0004C14.0633 20.0004 12.6367 19.5394 11.787 18.7292C10.8982 17.8817 10.8014 16.8066 11.0417 16.0461L11.2369 15.428L21.6223 14.2324L19.1435 11.4346C19.0572 11.3372 18.9907 11.2238 18.9478 11.1009L18.0558 8.54452C17.8739 8.02307 18.1491 7.45285 18.6706 7.27091C19.192 7.08897 19.7623 7.3642 19.9442 7.88565L20.7712 10.2559L22.7298 12.4665C22.8144 12.2752 22.9047 12.1025 23 11.9509V5C23 4.44772 23.4477 4 24 4ZM34.8878 17.2253C34.8709 17.2441 34.8527 17.2629 34.8329 17.2818C34.5232 17.5771 33.7149 18.0004 31.8144 18.0004C30.0199 18.0004 29.0398 17.4555 28.5077 16.9095C28.3626 16.7607 28.2441 16.6051 28.1482 16.4494L34.8878 17.2253ZM13.1672 17.2818C13.1474 17.2629 13.1291 17.2441 13.1123 17.2253L19.8519 16.4494C19.756 16.6051 19.6374 16.7607 19.4924 16.9095C18.9602 17.4555 17.9802 18.0004 16.1857 18.0004C14.2852 18.0004 13.4769 17.5771 13.1672 17.2818Z" fill="black"/>
<path d="M23.0001 40.5859L28.586 35H25V33H32V40H30V36.4144L24.4144 42H36V44H12V42H21.5858L14.293 34.7072L15.7072 33.293L23.0001 40.5859Z" fill="black"/>
</svg>

<svg
  xmlns="http://www.w3.org/2000/svg"
  width="24"
  height="24"
  viewBox="0 0 24 24"
  fill="none"
  stroke="currentColor"
  stroke-width="2"
  stroke-linecap="round"
  stroke-linejoin="round"
>
  <path
    fill-rule="evenodd"
    d="M24 4a1 1 0 0 1 1 1v6.95q.143.229.27.517l1.959-2.211.827-2.37a1 1 0 0 1 1.888.659l-.892 2.556a1 1 0 0 1-.195.334l-2.48 2.797 10.386 1.196.195.618c.24.76.144 1.836-.745 2.683-.85.81-2.276 1.271-4.399 1.271-2.228 0-3.762-.693-4.738-1.695a4.6 4.6 0 0 1-1.077-1.762l.001.172c0 .745-.054 1.456-.151 2.104l2.51.962q.166.065.301.183l1.551 1.364 1.97.495a1 1 0 1 1-.487 1.94l-2.205-.555a1 1 0 0 1-.417-.218l-1.598-1.405-1.254-.482 1.555 1.303a1 1 0 0 1 .337.971l-.43 2.06 1.141 1.142a1 1 0 0 1-1.414 1.415l-1.524-1.524a1 1 0 0 1-.272-.912l.419-2.003-1.281-1.073a1 1 0 0 1-.293-.412.84.84 0 0 1-.458.145.84.84 0 0 1-.458-.145 1 1 0 0 1-.202.325l-1.001 1.079.435 2.084a1 1 0 0 1-.271.912l-1.524 1.524a1 1 0 0 1-1.415-1.415l1.142-1.141-.43-2.06a1 1 0 0 1 .245-.886l1.227-1.321-.92.393-1.487 1.402a1 1 0 0 1-.443.242l-2.204.554a1 1 0 0 1-.487-1.94l1.952-.49 1.427-1.345a1 1 0 0 1 .292-.191l2.274-.974a14 14 0 0 1-.151-2.28 4.6 4.6 0 0 1-1.076 1.763C19.948 19.307 18.414 20 16.185 20c-2.122 0-3.548-.46-4.398-1.27-.889-.848-.986-1.923-.745-2.684l.195-.618 10.385-1.196-2.479-2.797a1 1 0 0 1-.195-.334l-.892-2.556a1 1 0 0 1 1.888-.66l.827 2.37 1.959 2.211q.127-.287.27-.515V5a1 1 0 0 1 1-1m10.888 13.225-.055.057c-.31.295-1.118.718-3.019.718-1.794 0-2.774-.544-3.306-1.09a2.7 2.7 0 0 1-.36-.46zm-21.72.057-.056-.057 6.74-.776a2.7 2.7 0 0 1-.36.46C18.96 17.457 17.98 18 16.186 18c-1.9 0-2.71-.423-3.019-.718"
    clip-rule="evenodd"
  />
  <path d="M23 40.586 28.586 35H25v-2h7v7h-2v-3.586L24.414 42H36v2H12v-2h9.586l-7.293-7.293 1.414-1.414z" />
</svg>
